svgs/sharp-duotone-light/square-arrow-up-right.svg

<svg xmlns="http://www.w3.org/2000/svg" viewBox="0 0 448 512"><!--! Font Awesome Pro 7.1.0 by @fontawesome - https://fontawesome.com License - https://fontawesome.com/license (Commercial License) Copyright 2025 Fonticons, Inc. --><path opacity=".4" fill="currentColor" d="M32 64l0 384 384 0 0-384-384 0zm89.4 272l11.3-11.3 132.7-132.7-105.4 0 0-32 160 0 0 160-32 0 0-105.4-132.7 132.7-11.3 11.3-22.6-22.6z"/><path fill="currentColor" d="M416 64l0 384-384 0 0-384 384 0zm32-32l-448 0 0 448 448 0 0-448zM176 192l89.4 0-132.7 132.7-11.3 11.3 22.6 22.6 11.3-11.3 132.7-132.7 0 105.4 32 0 0-160-160 0 0 32 16 0z"/></svg>

<svg xmlns="http://www.w3.org/2000/svg" viewBox="0 0 448 512"><!--! Font Awesome Pro 6.7.2 by @fontawesome - https://fontawesome.com License - https://fontawesome.com/license (Commercial License) Copyright 2024 Fonticons, Inc. --><defs><style>.fa-secondary{opacity:.4}</style></defs><path class="fa-secondary" d="M32 64l0 384 384 0 0-384L32 64zm89.4 272l11.3-11.3L265.4 192 168 192l-16 0 0-32 16 0 136 0 16 0 0 16 0 144 0 16-32 0 0-16 0-105.4L155.3 347.3 144 358.6 121.4 336z"/><path class="fa-primary" d="M416 64l0 384L32 448 32 64l384 0zm32-32l-32 0L32 32 0 32 0 64 0 448l0 32 32 0 384 0 32 0 0-32 0-384 0-32zM304 160l-136 0-16 0 0 32 16 0 97.4 0L132.7 324.7 121.4 336 144 358.6l11.3-11.3L288 214.6 288 320l0 16 32 0 0-16 0-144 0-16-16 0z"/></svg>
